X:26
T:Key of the Cellar
%% Go to Berwick Johnny
M:3/2
L:1/8
K:AMin
B2G2  G2D2  G4 |B2G2 G2c2 ABcA|B2G2  G2D2   G4|A2F2 F2c2 ABcA:|
B2d2  d2f2 Te4 |B2d2 d2B2 ABcA|B2d2  d2e2   f4|A2F2 F2c2 ABcA:|
BcdB  ABcA  G3c|BcdB G3B  ABcA|BcdB  ABcA   f4|A2F2 F2c2 ABcA:|
G2g2 ^fgaf  g4 |d2 g4  b2 a2g2|d2g2 (ag=fe) f4|A2F2 F2c2 ABcA:|

% @@@@@@@@@@@@@@@@@@@@@@@@@@@@@@@@@@

%% 27. ===============================================================================

% &Hakie.&
%
% *FIRST Couple sett, and cast off.  Sett again, & cast up.  *First Couple Right
% hands across with the 2d Couple quite round.  Then lead down thro' the 3d Couple,
% and cast up.  *SETT across and turn.  *Reel at the sides.  Then sett to your
% Partner, and turn.

% @@@@@@@@@@@@@@@@@@@@@@@@@@@@@@@@@@

